icon-themes/breeze_svg/cmd/32/beziermove.svg

<svg viewBox="0 0 32 32" xmlns="http://www.w3.org/2000/svg"><path d="m6.5 4a2.5 2.5 0 0 0 -2.5 2.5 2.5 2.5 0 0 0 2 2.4453125v14.0546875h-2v5h5v-5h-2v-14.0527344a2.5 2.5 0 0 0 1.9453125-1.9472656h14.0546875v2h5v-5h-5v2h-14.0507812a2.5 2.5 0 0 0 -2.4492188-2zm0 1a1.5 1.5 0 0 1 1.5 1.5 1.5 1.5 0 0 1 -1.5 1.5 1.5 1.5 0 0 1 -1.5-1.5 1.5 1.5 0 0 1 1.5-1.5zm17.5 0h3v3h-3zm-19 19h3v3h-3z" fill="#4d4d4d"/><path d="m9 9v7l1.585938-.714844 1.914062 1.714844-.199219-2.400391 1.699219-.599609z" fill="#1d99f3"/></svg>

<svg xmlns="http://www.w3.org/2000/svg" viewBox="0 0 32 32">
 <path 
     style="fill:#4d4d4d" 
     d="M 6.5 4 A 2.5 2.5 0 0 0 4 6.5 A 2.5 2.5 0 0 0 6 8.9453125 L 6 23 L 4 23 L 4 28 L 9 28 L 9 23 L 7 23 L 7 8.9472656 A 2.5 2.5 0 0 0 8.9453125 7 L 23 7 L 23 9 L 28 9 L 28 4 L 23 4 L 23 6 L 8.9492188 6 A 2.5 2.5 0 0 0 6.5 4 z M 6.5 5 A 1.5 1.5 0 0 1 8 6.5 A 1.5 1.5 0 0 1 6.5 8 A 1.5 1.5 0 0 1 5 6.5 A 1.5 1.5 0 0 1 6.5 5 z M 24 5 L 27 5 L 27 8 L 24 8 L 24 5 z M 5 24 L 8 24 L 8 27 L 5 27 L 5 24 z "
     />
 <path 
     style="fill:#1d99f3" 
     d="M 9 9 L 9 16 L 10.585938 15.285156 L 12.5 17 L 12.300781 14.599609 L 14 14 L 9 9 z "
     />
</svg>
